X: 43244
T: Wolf In The Whisky
R: reel
M: 4/4
K: Gmajor
BA|:GFGA BdBG|E2E2 c2BA|GFGA BdBG|D2D2 BdBA|
GFGA BdBG|E2E2 c2BA|GFGA BdBG|1 AGFA G2 BA:|2 AGFA GABc||
|:d3(d d)cBG|E2 E2 c2Bc|d3(d d)cBG|=FEDE FABc|
d3(d d)cBG|E2 E2 c2Bc|1 dcBd cBAc|BAGF GABc:|2 dBcA BGAF|AGFA G4||

